X: 1
T: Cornhill, The
M: 4/4
L: 1/8
R: reel
K: Dmix
E|D3 B ADED|C2 EG cAGE|D3 B ADED|EAAG EDDE|
(3DDD BD ADED|C2 EG cAGE|D3 B ADED|EAAG EDDB|
Addc dedc|AccB cdBc|Addc (3ded cd|eaag eddc|
de=fe dcAB|cdBd c3 A|GA (c/c/d) eged|cAGE ED D2|
K:D
|:afdf a3 f|gece (3gag fg|afdf a3g|eaag eddf|
afdf a3 f|gece gABA|GA=c/=c/d egdB|=cAGE ED D2:|
